assets/img/icons/footer/facebook.svg

<svg width="60" height="60" viewBox="0 0 60 60" fill="none" xmlns="http://www.w3.org/2000/svg">
<path fill-rule="evenodd" clip-rule="evenodd" d="M30 0C13.4315 0 0 13.4315 0 30C0 46.5685 13.4315 60 30 60C46.5685 60 60 46.5685 60 30C60 22.0435 56.8393 14.4129 51.2132 8.7868C45.5871 3.16071 37.9565 0 30 0ZM33.127 31.318V47.639H26.374V31.318H23V25.694H26.374V22.317C26.374 17.729 28.279 15 33.692 15H38.2V20.625H35.381C33.274 20.625 33.135 21.411 33.135 22.878L33.127 25.693H38.227L37.627 31.318H33.127Z" fill="white"/>
</svg>

<svg width="60" height="60" fill="none" xmlns="http://www.w3.org/2000/svg"><path fill-rule="evenodd" clip-rule="evenodd" d="M30 0C13.431 0 0 13.431 0 30c0 16.569 13.431 30 30 30 16.569 0 30-13.431 30-30A30 30 0 0030 0zm3.127 31.318v16.321h-6.753V31.318H23v-5.624h3.374v-3.377c0-4.588 1.905-7.317 7.318-7.317H38.2v5.625h-2.819c-2.107 0-2.246.786-2.246 2.253l-.008 2.815h5.1l-.6 5.625h-4.5z" fill="#fff"/></svg>
